plasma/desktoptheme/Materia/icons/kdf.svg

<svg xmlns="http://www.w3.org/2000/svg" width="32" height="32" version="1.1">
 <g id="16-16-kdf" transform="matrix(-1,0,0,1,50,10)">
  <rect style="opacity:0.001" width="16" height="16" x="-20" y="6" ry="0"/>
  <path style="fill:#dfdfdf" d="m -17,7 c -1,0 -1,1 -1,1 v 12 c 0,0 0,1 1,1 h 10 c 0,0 1,0 1,-1 V 8 c 0,0 0,-1 -1,-1 z m 5,2 c 2.20914,0 4,1.79086 4,4 0,2.20914 -1.79086,4 -4,4 h -4 v -4 c 0,-2.20914 1.79086,-4 4,-4 z m 0,2 c -1.10457,0 -2,0.89543 -2,2 0,1.10457 0.89543,2 2,2 1.10457,0 2,-0.89543 2,-2 0,-1.10457 -0.89543,-2 -2,-2 z"/>
 </g>
 <g id="22-22-kdf" transform="matrix(-1,0,0,1,54,10)">
  <rect style="opacity:0.001" width="22" height="22" x="0" y="0" ry="1.375"/>
  <path style="fill:#dfdfdf" d="M 5.166016,3 C 3.99935,3 4,4.142578 4,4.142578 V 17.857422 C 4,17.857422 3.99935,19 5.166016,19 H 16.833984 C 16.833984,19 18,19.000279 18,17.857422 V 4.142578 C 18,4.142578 18.00065,3 16.833984,3 Z M 11,5 c 2.761425,0 5,2.238575 5,5 0,2.761425 -2.238575,5 -5,5 H 6 V 10 C 6,7.238575 8.238573,5 11,5 Z m 0,3 c -1.10457,0 -2,0.89543 -2,2 0,1.10457 0.89543,2 2,2 1.10457,0 2,-0.89543 2,-2 0,-1.10457 -0.89543,-2 -2,-2 z"/>
 </g>
 <g id="kdf">
  <rect style="opacity:0.001" width="32" height="32" x="-32" y="0" rx="3.349" ry="2.145" transform="scale(-1,1)"/>
  <g transform="matrix(-1,0,0,1,32,0)">
   <rect style="opacity:0.2" width="28" height="22" x="-31" y="-27" rx="2" ry="2" transform="matrix(0,-1,-1,0,0,0)"/>
   <rect style="fill:#20b68b" width="28" height="22" x="-30" y="-27" rx="2" ry="2" transform="matrix(0,-1,-1,0,0,0)"/>
   <path style="opacity:0.5" d="M 16,6 C 12.134,6 9,9.134 9,13 v 7 h 7 c 3.866,0 7,-3.134 7,-7 0,-3.866 -3.134,-7 -7,-7 z m 0,4 a 3,3 0 0 1 3,3 3,3 0 0 1 -3,3 3,3 0 0 1 -3,-3 3,3 0 0 1 3,-3 z"/>
   <path style="opacity:0.2;fill:#ffffff" d="M 7,2 C 5.892,2 5,2.892 5,4 V 5 C 5,3.892 5.892,3 7,3 h 18 c 1.108,0 2,0.892 2,2 V 4 C 27,2.892 26.108,2 25,2 Z"/>
  </g>
 </g>
</svg>

<?xml version="1.0" encoding="UTF-8"?>
<svg width="32" height="32" version="1.1" xmlns="http://www.w3.org/2000/svg">
 <g id="16-16-kdf" transform="matrix(-1,0,0,1,50,10)">
  <rect x="-20" y="6" width="16" height="16" ry="0" opacity=".001"/>
  <path d="m-17 7c-1 0-1 1-1 1v12s0 1 1 1h10s1 0 1-1v-12s0-1-1-1zm5 2c2.2091 0 4 1.7909 4 4s-1.7909 4-4 4h-4v-4c0-2.2091 1.7909-4 4-4zm0 2c-1.1046 0-2 0.89543-2 2s0.89543 2 2 2 2-0.89543 2-2-0.89543-2-2-2z" fill="#dfdfdf"/>
 </g>
 <g id="22-22-kdf" transform="matrix(-1,0,0,1,54,10)">
  <rect width="22" height="22" ry="1.375" opacity=".001"/>
  <path d="m5.166 3c-1.1667 0-1.166 1.1426-1.166 1.1426v13.715s-6.5e-4 1.1426 1.166 1.1426h11.668s1.166 2.79e-4 1.166-1.1426v-13.715s6.5e-4 -1.1426-1.166-1.1426zm5.834 2c2.7614 0 5 2.2386 5 5s-2.2386 5-5 5h-5v-5c0-2.7614 2.2386-5 5-5zm0 3c-1.1046 0-2 0.89543-2 2s0.89543 2 2 2 2-0.89543 2-2-0.89543-2-2-2z" fill="#dfdfdf"/>
 </g>
 <g id="kdf">
  <rect transform="scale(-1,1)" x="-32" width="32" height="32" rx="3.349" ry="2.145" opacity=".001"/>
  <g transform="matrix(-1,0,0,1,32,0)">
   <rect transform="matrix(0,-1,-1,0,0,0)" x="-31" y="-27" width="28" height="22" rx="2" ry="2" opacity=".2"/>
   <rect transform="matrix(0,-1,-1,0,0,0)" x="-30" y="-27" width="28" height="22" rx="2" ry="2" fill="#20b68b"/>
   <path d="m16 6c-3.866 0-7 3.134-7 7v7h7c3.866 0 7-3.134 7-7s-3.134-7-7-7zm0 4a3 3 0 0 1 3 3 3 3 0 0 1-3 3 3 3 0 0 1-3-3 3 3 0 0 1 3-3z" opacity=".5"/>
   <path d="m7 2c-1.108 0-2 0.892-2 2v1c0-1.108 0.892-2 2-2h18c1.108 0 2 0.892 2 2v-1c0-1.108-0.892-2-2-2z" fill="#fff" opacity=".2"/>
  </g>
 </g>
</svg>
